X: 3803
T: Black Bear, The
R: hornpipe
M: 4/4
K: Dmajor
M:2/4
(3A/B/c/|"D" dd f/>d/a/>f/|"D" dd f/>d/a/>f/|"E7" eB Be/d/|"A7" c/<d/B/c/ A/>B/c/<A/|
"D" dd f/>d/a/>f/|"D" dd f/>d/a/>f/|"A7" e>e e/<g/f/<e/|"D" df d:|
e|"A" A/>A/A/>B/ "D"dd/>e/|"G" gf/>e/ "D"f/<a/f/<d/|"A7" A/>A/A/>(B/"D" d)d/>e/|"G" gf/>e/ "D"f/(<a/f/)<d/|
"A"a/<A/A/<A/ c/<A/A/<A/|"E7" d/>B/B/<B/ "A"e/>c/c/<c/|"D" d/>f/d/>f/ "G"e/>g/f/>g/|"D" a/>A/a "A7"a/>g/f/>e/||

